X:45
T:L'autre jour ma Cloris. [FJ45]
% The title is hard to read on music page 22 of MS, but is found one of the book's indices.
S:Festin joyeux.  Music page 22.
Z:transcribed by Eric Conrad, 2021.
N:NB The meter is given simply as "2"
N:NB In the MS, the G is the bottom line of the staff
N:NB Repeat marks were added at beginning and end.
N:NB The MS repeat mark is 4 vertical dots enclosed by bars on both sides.
N:NB The plus signs seem to indicate some kind of roll or trill.
N:NB0 rest added, not in MS.  See NB6.
N:NB1 MS is unclear.  "A>B" is a possible reading.  Another reading is "zAB/".
N:NB2 MS is unclear.  "c2e" is a possible reading.  It appears that something was erased and later corrected.
N:NB3 MS has "gg/" (quarter, eighth), here "g>g" (dotted quarter, eighth).
N:NB4 MS has "fg/" (quarter, eighth), here "f>g" (dotted quarter, eighth).
N:NB5 MS unclear. Possible readings are "e/" (part of the beam) or "e" (separate quarter note).
N:NB5 -- There is a slight gap indicating the latter was intended.  The former gives a short measure.
N:NB6 MS has "|c2||", here "|1c|2c4|]"
M:2/2
L:1/4
% K:C clef=treble1 % staff GBdfa
K:C % empty sig and end C (C Major)
|: G cd | e2 "^+"d2 | c>B "_NB1"A>B | G>c "^+"B2 | c :: "_NB2"c2e | "^+"e>d e>f |
"_NB3"g>g a/g/f/e/ | "_NB4"f>g "^+"e2 | "^+"d2ef | d2 e f/4e/4d/4c/4 | "^+"B c/d/e/d/ "_NB5"e | \
  e2 "^+"d2 |1 "_NB6"c :|2 c4 |]

